korla/places/symbolic/folder-templates-symbolic.svg

<!-- Created with Inkscape (http://www.inkscape.org/) -->
<svg width="36" height="36" version="1.1" xmlns="http://www.w3.org/2000/svg">
 <title>Gnome Symbolic Icon Theme</title>
 <path d="m18.137405 2.3771145c-0.21508 0.016646-0.429657 0.081702-0.628135 0.1962922l-1.099237 0.6281353c-0.70571 0.4074399-0.937429 1.2964712-0.529989 2.0021812l9.539804 16.52786 3.494002-2.33591-9.402399-16.272648c-0.254653-0.4410703-0.687475-0.7130089-1.158125-0.7459106-0.0706-0.00503-0.144226-0.00565-0.215921 0zm-3.376227 5.6335883c-0.470649 0.03291-0.923101 0.285211-1.177754 0.726281l-0.961832 1.6488552 3.631407 2.100328 0.961832-1.648855c0.40744-0.70571 0.175721-1.5947412-0.529989-2.0021812l-1.079607-0.628136c-0.26464-0.152794-0.561666-0.216035-0.844057-0.196292zm-2.748092 3.4547442-8.224645 14.270498 3.631407 2.080698 8.224645-14.250869zm-12.013086 6.399147v4.200654h4.868284l2.414395-4.200654zm14.211638 0-2.414395 4.200654h12.778391l-2.434024-4.200654zm14.858932 0 2.434024 4.200654h4.495406v-4.200654zm0.471416 2.610718-3.494003 2.335847 1.747002 3.022901 3.494002-2.335847zm2.375136 4.122138-3.494002 2.335846c0.104094 4.176472 3.293583 3.656438 4.514722 6.261755 2.325217-2.475418 1.62212-6.281918-1.02072-8.597601zm-28.756817 2.218071-1.904035 6.811373 5.535442-4.711014z" style="fill:#000000;opacity:.816"/>
</svg>

<?xml version="1.0" encoding="UTF-8" standalone="no"?>
<!-- Created with Inkscape (http://www.inkscape.org/) -->

<svg
   xmlns:dc="http://purl.org/dc/elements/1.1/"
   xmlns:cc="http://creativecommons.org/ns#"
   xmlns:rdf="http://www.w3.org/1999/02/22-rdf-syntax-ns#"
   xmlns:svg="http://www.w3.org/2000/svg"
   xmlns="http://www.w3.org/2000/svg"
   xmlns:sodipodi="http://sodipodi.sourceforge.net/DTD/sodipodi-0.dtd"
   xmlns:inkscape="http://www.inkscape.org/namespaces/inkscape"
   id="svg7384"
   height="36"
   width="36"
   version="1.1"
   inkscape:version="0.91 r13725"
   sodipodi:docname="folder-templates-symbolic.svg">
  <defs
     id="defs10" />
  <sodipodi:namedview
     pagecolor="#ffffff"
     bordercolor="#666666"
     borderopacity="1"
     objecttolerance="10000"
     gridtolerance="10"
     guidetolerance="10"
     inkscape:pageopacity="0"
     inkscape:pageshadow="2"
     inkscape:window-width="1863"
     inkscape:window-height="1056"
     id="namedview8"
     showgrid="false"
     inkscape:zoom="2.8284271"
     inkscape:cx="-90.796397"
     inkscape:cy="50.526078"
     inkscape:window-x="57"
     inkscape:window-y="24"
     inkscape:window-maximized="1"
     inkscape:current-layer="svg7384"
     showguides="false"
     inkscape:snap-path-clip="true"
     inkscape:snap-tangential="true" />
  <metadata
     id="metadata90">
    <rdf:RDF>
      <cc:Work
         rdf:about="">
        <dc:format>image/svg+xml</dc:format>
        <dc:type
           rdf:resource="http://purl.org/dc/dcmitype/StillImage" />
        <dc:title>Gnome Symbolic Icon Theme</dc:title>
      </cc:Work>
    </rdf:RDF>
  </metadata>
  <title
     id="title9167">Gnome Symbolic Icon Theme</title>
  <path
     style="fill:#000000;fill-opacity:1;stroke:none;opacity:0.816"
     d="m 18.137405,2.3771145 c -0.21508,0.016646 -0.429657,0.081702 -0.628135,0.1962922 L 16.410033,3.201542 c -0.70571,0.4074399 -0.937429,1.2964712 -0.529989,2.0021812 L 25.419848,21.731583 28.91385,19.395673 19.511451,3.1230251 C 19.256798,2.6819548 18.823976,2.4100162 18.353326,2.3771145 c -0.0706,-0.00503 -0.144226,-0.00565 -0.215921,0 z m -3.376227,5.6335883 c -0.470649,0.03291 -0.923101,0.285211 -1.177754,0.726281 l -0.961832,1.6488552 3.631407,2.100328 0.961832,-1.648855 c 0.40744,-0.70571 0.175721,-1.5947412 -0.529989,-2.0021812 l -1.079607,-0.628136 c -0.26464,-0.152794 -0.561666,-0.216035 -0.844057,-0.196292 z M 12.013086,11.465447 3.788441,25.735945 7.419848,27.816643 15.644493,13.565774 Z M 0,17.864594 l 0,4.200654 4.868284,0 2.414395,-4.200654 z m 14.211638,0 -2.414395,4.200654 12.778391,0 -2.434024,-4.200654 z m 14.858932,0 2.434024,4.200654 4.495406,0 0,-4.200654 z m 0.471416,2.610718 -3.494003,2.335847 1.747002,3.022901 3.494002,-2.335847 z m 2.375136,4.122138 -3.494002,2.335846 c 0.104094,4.176472 3.293583,3.656438 4.514722,6.261755 2.325217,-2.475418 1.62212,-6.281918 -1.02072,-8.597601 z M 3.160305,26.815521 1.25627,33.626894 6.791712,28.91588 Z"
     id="rect3081"
     inkscape:connector-curvature="0"
     sodipodi:nodetypes="cccccccccccccccccccccccccccccccccccccccccccccccccc" />
</svg>
